dist/uploads/visa.svg

<svg width="40" height="25" viewBox="0 0 40 25" fill="none" xmlns="http://www.w3.org/2000/svg">
<path d="M0 2.1103C0 0.944813 0.955432 0 2.1329 0H37.8671C39.0451 0 40 0.944587 40 2.1103V22.7355C40 23.901 39.0446 24.8458 37.8671 24.8458H2.1329C0.954933 24.8458 0 23.9012 0 22.7355V2.1103ZM27.974 7.52693C27.4102 7.31772 26.5267 7.09321 25.4234 7.09321C22.6115 7.09321 20.6307 8.49381 20.6138 10.5011C20.598 11.985 22.0279 12.8128 23.1074 13.3067C24.2151 13.8129 24.5875 14.1357 24.5822 14.5877C24.5752 15.2799 23.6976 15.5961 22.8797 15.5961C21.7406 15.5961 21.1355 15.4396 20.2009 15.054L19.8342 14.8899L19.4348 17.2017C20.0995 17.4899 21.3286 17.7397 22.6048 17.7526C25.5962 17.7526 27.5382 16.368 27.5603 14.2245C27.571 13.0498 26.8128 12.1557 25.171 11.4188C24.1763 10.941 23.5671 10.6223 23.5736 10.1385C23.5736 9.7093 24.0892 9.25031 25.2033 9.25031C26.1339 9.23602 26.808 9.43674 27.3332 9.64595L27.5882 9.76511L27.974 7.52693ZM35.2714 7.28254H33.0725C32.3912 7.28254 31.8815 7.46643 31.5823 8.1389L27.3559 17.6026H30.3442C30.3442 17.6026 30.8328 16.3302 30.9433 16.0508C31.2699 16.0508 34.1729 16.0552 34.5879 16.0552C34.673 16.4167 34.9342 17.6026 34.9342 17.6026H37.5748L35.2714 7.28254ZM31.7623 13.9386C31.9976 13.3436 32.8961 11.0519 32.8961 11.0519C32.8793 11.0794 33.1297 10.454 33.2734 10.0663L33.4658 10.9566C33.4658 10.9566 34.0107 13.4216 34.1246 13.9385H31.7623V13.9386ZM14.808 17.5993H17.6526L19.4331 7.27267H16.5873L14.808 17.5993ZM9.33805 12.8906L8.34035 8.14565C8.16808 7.49175 7.66845 7.29662 7.05037 7.27383H2.46152L2.4252 7.48869C3.54146 7.75595 4.53965 8.1416 5.41444 8.62134L7.94451 17.5904L10.9554 17.587L15.4357 7.28021H12.4212L9.63507 14.3222L9.33821 12.8911C9.33816 12.891 9.33811 12.8908 9.33805 12.8906Z" fill="white"/>
</svg>

<svg width="40" height="25" fill="none" xmlns="http://www.w3.org/2000/svg"><path d="M0 2.11C0 .945.955 0 2.133 0h35.734C39.045 0 40 .945 40 2.11v20.625c0 1.166-.955 2.11-2.133 2.11H2.133A2.122 2.122 0 010 22.736V2.11zm27.974 5.417a7.422 7.422 0 00-2.55-.434c-2.813 0-4.793 1.4-4.81 3.408-.016 1.484 1.414 2.312 2.493 2.806 1.108.506 1.48.829 1.475 1.28-.007.693-.884 1.01-1.702 1.01-1.14 0-1.744-.157-2.68-.543l-.366-.164-.4 2.312c.665.288 1.895.538 3.17.55 2.992 0 4.934-1.384 4.956-3.527.011-1.175-.747-2.07-2.389-2.806-.995-.478-1.604-.797-1.597-1.28 0-.43.515-.889 1.63-.889a5.3 5.3 0 012.13.396l.254.12.386-2.24zm7.297-.244h-2.199c-.68 0-1.19.183-1.49.856l-4.226 9.464h2.988s.489-1.273.6-1.552l3.644.004c.085.362.346 1.548.346 1.548h2.64l-2.303-10.32zm-3.509 6.656c.236-.595 1.134-2.887 1.134-2.887-.017.027.234-.598.377-.986l.193.89.659 2.982h-2.363zm-16.954 3.66h2.845l1.78-10.326h-2.846l-1.779 10.326zm-5.47-4.708L8.34 8.146c-.172-.654-.672-.85-1.29-.872H2.462l-.037.215c1.116.267 2.115.653 2.99 1.132l2.53 8.97 3.01-.004 4.48-10.307h-3.014l-2.786 7.042-.297-1.43v-.001z" fill="#fff"/></svg>
